X: 4
T: Palmer's Gate
R: reel
M: 4/4
L: 1/8
K: Emin
|:GA|BE E2 GABG|AdBG AGEF|G3A BABG|BedB A2 GA|BE E2 GABG|AdBG AGEF|GABd edBG|EGFD E2 GA:|||:Beed e3f|g2 fg edBA|G2 BG dGBG|Bded edBA|Beed e3f|g2 fg edBA|GABd edBG|EGFD E2 GA:||


Tune 1020	Setting 26176

